X: 35
T:Boys of Bluehill, The
M:C|
L:1/8
R:hornpipe
K:D
d>B|B>AF>A D>AF>A|B>A (3Bcd e2 d>e|f>ag>f e>gf>e|d>fe>d B2 d>B|
B>AF>A D2 F>A|B>A (3Bcd e2 d>e|f>ag>f e>gf>e|1d2 d>c d2 :|2d2 d>c d>ef>g
||
|:a>fd>f a2 g>f|g>fg>a b2 a>g|f>ag>f e>gf>e|d>fe>d B2 d>B|
B>AF>A D2 F>A|B>A (3Bcd e2 d>e|f>ag>f e>gf>e|1d2 d>c d>ef>g:|2d2 d>c d2
||
